icons/arrow-tray-top-right.svg

<svg xmlns="http://www.w3.org/2000/svg" width="24" height="24" viewBox="0 0 24 24">
  <path d="M21,14 C21.5522847,14 22,14.4477153 22,15 L22,15 L22,19 L21.9949073,19.1762728 C21.9036609,20.75108 20.5976809,22 19,22 L19,22 L5,22 L4.82372721,21.9949073 C3.24891996,21.9036609 2,20.5976809 2,19 L2,19 L2,15 L2.00672773,14.8833789 C2.06449284,14.3860402 2.48716416,14 3,14 C3.55228475,14 4,14.4477153 4,15 L4,15 L4,19 L4.00672773,19.1166211 C4.06449284,19.6139598 4.48716416,20 5,20 L5,20 L19,20 L19.1166211,19.9932723 C19.6139598,19.9355072 20,19.5128358 20,19 L20,19 L20,15 L20.0067277,14.8833789 C20.0644928,14.3860402 20.4871642,14 21,14 Z M21.999,2.967 L22,3 L22,3 L21.998,2.94 L21.999,2.967 L22,3 L22,9 L21.9932723,9.11662113 C21.9355072,9.61395981 21.5128358,10 21,10 C20.4871642,10 20.0644928,9.61395981 20.0067277,9.11662113 L20,9 L20,5.414 L12.7071068,12.7071068 L12.6128994,12.7902954 C12.2206082,13.0953203 11.6533772,13.0675907 11.2928932,12.7071068 C10.9324093,12.3466228 10.9046797,11.7793918 11.2097046,11.3871006 L11.2928932,11.2928932 L18.584,4 L15,4 L14.8833789,3.99327227 C14.3860402,3.93550716 14,3.51283584 14,3 C14,2.48716416 14.3860402,2.06449284 14.8833789,2.00672773 L15,2 L21.0193409,2.0001833 L21.0590314,2.0017331 L21.084,2.004 L21.1166211,2.00672773 C21.1291477,2.00818267 21.1416037,2.00986911 21.1539846,2.01178265 L21.1650233,2.01362133 L21.1650233,2.01362133 L21.1988177,2.01976438 L21.2350988,2.02779171 L21.2350988,2.02779171 L21.3121425,2.04973809 L21.3121425,2.04973809 C21.3317977,2.05612249 21.3515792,2.06331574 21.3710585,2.07110396 L21.4232215,2.09367336 L21.4232215,2.09367336 C21.4438914,2.10337664 21.4642939,2.11379392 21.484277,2.12487577 C21.4963944,2.13149883 21.5086131,2.13860692 21.5207088,2.14599545 C21.546275,2.1617187 21.5711307,2.17849009 21.5951593,2.19631351 L21.6148064,2.21126487 L21.625449,2.21968877 L21.639,2.231 L21.6525476,2.24220539 C21.6712145,2.25830113 21.6894098,2.27519619 21.7071068,2.29289322 L21.625449,2.21968877 C21.6854251,2.26782388 21.7397335,2.32273092 21.787214,2.38324992 C21.7927155,2.39015759 21.7982466,2.39739696 21.8036654,2.40469339 C21.8215099,2.42886931 21.8382813,2.45372505 21.8539326,2.47933981 L21.8753288,2.5159379 L21.8753288,2.5159379 C21.8862061,2.53570605 21.8966234,2.5561086 21.9063462,2.57690085 L21.9287745,2.62866398 L21.9287745,2.62866398 C21.9366843,2.6484208 21.9438775,2.66820232 21.9504533,2.68826359 C21.9552713,2.70314866 21.9599023,2.71853672 21.9641549,2.73400703 C21.9701664,2.75556352 21.9753602,2.77725392 21.9798348,2.7992059 C21.9832978,2.81662474 21.9863719,2.83405099 21.9889822,2.85153313 L21.9972123,2.92482325 L21.9972123,2.92482325 L21.998,2.94 L21.999,2.967 Z"/>
</svg>

<svg xmlns="http://www.w3.org/2000/svg" viewBox="0 0 24 24">
  <path d="M21 14a1 1 0 0 1 1 1v4.18A3 3 0 0 1 19 22H4.82A3 3 0 0 1 2 19v-4.12A1 1 0 0 1 4 15v4.12A1 1 0 0 0 5 20h14.12a1 1 0 0 0 .88-1v-4.12a1 1 0 0 1 1-.88zm1-11.03V3v-.06 6.18a1 1 0 0 1-2 0V5.4l-7.3 7.3-.09.08a1 1 0 0 1-1.4-1.4l.08-.1L18.6 4h-3.71a1 1 0 0 1 0-2h6.23a1 1 0 0 1 .03.01h.02l.03.01h.04l.07.03.06.02.05.02a1.02 1.02 0 0 1 .18.1l.01.02.02.01v.01l.02.01a1 1 0 0 1 .06.05l-.08-.07a1 1 0 0 1 .22.26l.03.04.03.06.02.05a.99.99 0 0 1 .06.22v.12z"/>
</svg>
